CN5T1/178/aimg/higado.svg

<svg clip-rule="evenodd" fill-rule="evenodd" stroke-linejoin="round" stroke-miterlimit="2" viewBox="0 0 132 121" xmlns="http://www.w3.org/2000/svg"><g transform="matrix(4.16667 0 0 4.16667 4.911 40.047)"><path d="m0 3.587c-.189-2.03.59-4.046 1.36-6.064.291-.765.867-1.24 1.545-1.648 1.606-.966 3.362-1.521 5.182-1.875 1.282-.249 2.575-.466 3.874-.602.594-.063 1.223.046 1.815.179 2.087.468 3.843 1.473 5.212 3.173 1.28 1.589 2.671 3.084 3.997 4.633.656.766.651.786.066 1.541-.589.761-1.195 1.508-1.804 2.252-1.15 1.407-2.622 2.342-4.328 2.922-1.459.495-2.922.969-4.179 1.909-.195.147-.501.194-.757.201-1.659.044-3.314-.015-4.902-.567-1.707-.594-3.401-1.226-5.106-1.825-1.425-.501-2.104-1.473-1.979-2.995.028-.344.004-.692.004-1.234z" fill="#f9b3dd" fill-rule="nonzero"/><path d="m-.95 3.63c-.187-2.155.605-4.303 1.422-6.445.371-.975 1.079-1.604 1.943-2.124 1.703-1.024 3.562-1.618 5.491-1.994 1.309-.254 2.63-.475 3.955-.614.694-.073 1.431.042 2.123.197 2.301.516 4.234 1.63 5.744 3.504 1.274 1.582 2.659 3.069 3.979 4.611.547.639.713 1.03.726 1.356.013.337-.125.732-.631 1.384-.594.768-1.205 1.522-1.819 2.272-1.266 1.548-2.881 2.582-4.759 3.221-1.364.463-2.739.891-3.912 1.768-.339.255-.858.379-1.304.392-1.773.047-3.541-.03-5.239-.62-1.708-.594-3.403-1.226-5.109-1.826-.934-.328-1.609-.832-2.045-1.482-.44-.657-.649-1.478-.566-2.486.026-.313.002-.63.001-1.114zm.95-.043c-.189-2.03.59-4.046 1.36-6.064.291-.765.867-1.24 1.545-1.648 1.606-.966 3.362-1.521 5.182-1.875 1.282-.249 2.575-.466 3.874-.602.594-.063 1.223.046 1.815.179 2.087.468 3.843 1.473 5.212 3.173 1.28 1.589 2.671 3.084 3.997 4.633.656.766.651.786.066 1.541-.589.761-1.195 1.508-1.804 2.252-1.15 1.407-2.622 2.342-4.328 2.922-1.459.495-2.922.969-4.179 1.909-.195.147-.501.194-.757.201-1.659.044-3.314-.015-4.902-.567-1.707-.594-3.401-1.226-5.106-1.825-1.425-.501-2.104-1.473-1.979-2.995.028-.344.004-.692.004-1.234z"/></g><g transform="matrix(4.16667 0 0 4.16667 105.181 3.067)"><path d="m0 10.049c-1.323-1.521-2.652-3.016-3.942-4.542-1.304-1.545-2.668-2.997-4.921-3.599.45-.214.697-.347.956-.449 3.663-1.459 7.45-1.42 11.258-.851.645.096 1.241.559 1.835.897.12.069.184.341.177.515-.029.651-.065 1.304-.161 1.947-.064.415-.274.806-.354 1.219-.179.93-.718 1.571-1.46 2.129-1.133.853-2.212 1.779-3.388 2.734z" fill="#f9b3dd" fill-rule="nonzero"/><path d="m0 10.049v.737h.599c1.166-.947 2.236-1.866 3.36-2.712.938-.705 1.596-1.532 1.822-2.708.082-.424.294-.827.36-1.254.101-.68.141-1.366.171-2.05.011-.269-.061-.637-.191-.886-.12-.233-.291-.396-.461-.495-.699-.397-1.415-.9-2.169-1.013-3.975-.594-7.926-.615-11.75.908-.271.107-.534.247-1.012.474-.36.171-.574.548-.538.945.036.396.316.728.701.831 2.043.546 3.258 1.893 4.44 3.294 1.293 1.53 2.625 3.028 3.951 4.552zm0 0c-1.323-1.521-2.652-3.016-3.942-4.542-1.304-1.545-2.668-2.997-4.921-3.599.45-.214.697-.347.956-.449 3.663-1.459 7.45-1.42 11.258-.851.645.096 1.241.559 1.835.897.12.069.184.341.177.515-.029.651-.065 1.304-.161 1.947-.064.415-.274.806-.354 1.219-.179.93-.718 1.571-1.46 2.129-1.133.853-2.212 1.779-3.388 2.734z"/></g><g transform="matrix(4.16667 0 0 4.16667 52.971 98.617)"><path d="m0-3.107c-.699.702-1.183 1.23-1.712 1.709-1.053.955-2.103 1.914-3.208 2.805-.497.402-1.093.724-1.695.944-1.213.445-2.011.192-2.846-.834-.745-.916-1.149-1.996-1.282-3.161-.144-1.259-.232-2.524-.334-3.786-.012-.14.043-.285.074-.473 3.508 1.359 6.896 2.937 11.003 2.796z" fill="#f9b3dd" fill-rule="nonzero"/><path d="m0-3.107-.033-.949c-3.969.136-7.236-1.419-10.627-2.733-.267-.103-.566-.081-.814.061-.249.142-.42.388-.466.67-.047.281-.101.5-.084.709.103 1.268.192 2.543.337 3.813.154 1.347.627 2.593 1.489 3.652.563.692 1.133 1.097 1.747 1.28.629.188 1.326.154 2.163-.153.698-.255 1.389-.631 1.965-1.097 1.119-.902 2.183-1.873 3.249-2.84.539-.489 1.034-1.026 1.747-1.743zm0 0c-.699.702-1.183 1.23-1.712 1.709-1.053.955-2.103 1.914-3.208 2.805-.497.402-1.093.724-1.695.944-1.213.445-2.011.192-2.846-.834-.745-.916-1.149-1.996-1.282-3.161-.144-1.259-.232-2.524-.334-3.786-.012-.14.043-.285.074-.473 3.508 1.359 6.896 2.937 11.003 2.796z"/></g><g transform="matrix(4.16667 0 0 4.16667 34.821 87.717)"><path d="m0 4.973c.601-.555 1.211-1.126 1.83-1.691.997-.907 2.017-1.789 2.992-2.717 1.542-1.47 3.358-2.395 5.466-2.913.04.197.109.346.09.482-.416 2.953-1.661 5.52-3.68 7.697-1.185 1.278-2.905 1.49-4.419.631-.703-.399-1.403-.804-2.101-1.214-.057-.033-.082-.122-.178-.275z" fill="#f9b3dd" fill-rule="nonzero"/><path d="m-.645 4.275c.603-.556 1.214-1.128 1.836-1.696.991-.902 2.006-1.779 2.975-2.702 1.664-1.586 3.621-2.589 5.895-3.148.251-.061.517-.018.735.121.219.138.372.359.423.613.066.325.131.578.1.804-.444 3.149-1.771 5.888-3.924 8.21-1.498 1.616-3.671 1.897-5.585.811-.707-.401-1.411-.808-2.108-1.218-.136-.078-.278-.228-.507-.592h.805v-.505zm.645.698c.601-.555 1.211-1.126 1.83-1.691.997-.907 2.017-1.789 2.992-2.717 1.542-1.47 3.358-2.395 5.466-2.913.04.197.109.346.09.482-.416 2.953-1.661 5.52-3.68 7.697-1.185 1.278-2.905 1.49-4.419.631-.703-.399-1.403-.804-2.101-1.214-.057-.033-.082-.122-.178-.275z"/></g></svg>

<?xml version="1.0" encoding="UTF-8" standalone="no"?>
<!DOCTYPE svg PUBLIC "-//W3C//DTD SVG 1.1//EN" "http://www.w3.org/Graphics/SVG/1.1/DTD/svg11.dtd">
<svg width="100%" height="100%" viewBox="0 0 132 121" version="1.1" xmlns="http://www.w3.org/2000/svg" xmlns:xlink="http://www.w3.org/1999/xlink" xml:space="preserve" xmlns:serif="http://www.serif.com/" style="fill-rule:evenodd;clip-rule:evenodd;stroke-linejoin:round;stroke-miterlimit:2;">
    <g transform="matrix(1,0,0,1,-1250,-2433)">
        <g id="higado" transform="matrix(1,0,0,1,27.041,216.657)">
            <g transform="matrix(4.16667,0,0,4.16667,1227.87,2256.39)">
                <path d="M0,3.587C-0.189,1.557 0.59,-0.459 1.36,-2.477C1.651,-3.242 2.227,-3.717 2.905,-4.125C4.511,-5.091 6.267,-5.646 8.087,-6C9.369,-6.249 10.662,-6.466 11.961,-6.602C12.555,-6.665 13.184,-6.556 13.776,-6.423C15.863,-5.955 17.619,-4.95 18.988,-3.25C20.268,-1.661 21.659,-0.166 22.985,1.383C23.641,2.149 23.636,2.169 23.051,2.924C22.462,3.685 21.856,4.432 21.247,5.176C20.097,6.583 18.625,7.518 16.919,8.098C15.46,8.593 13.997,9.067 12.74,10.007C12.545,10.154 12.239,10.201 11.983,10.208C10.324,10.252 8.669,10.193 7.081,9.641C5.374,9.047 3.68,8.415 1.975,7.816C0.55,7.315 -0.129,6.343 -0.004,4.821C0.024,4.477 0,4.129 0,3.587Z" style="fill:rgb(249,179,221);fill-rule:nonzero;"/>
                <path d="M-0.95,3.63C-1.137,1.475 -0.345,-0.673 0.472,-2.815C0.843,-3.79 1.551,-4.419 2.415,-4.939C4.118,-5.963 5.977,-6.557 7.906,-6.933C9.215,-7.187 10.536,-7.408 11.861,-7.547C12.555,-7.62 13.292,-7.505 13.984,-7.35C16.285,-6.834 18.218,-5.72 19.728,-3.846C21.002,-2.264 22.387,-0.777 23.707,0.765C24.254,1.404 24.42,1.795 24.433,2.121C24.446,2.458 24.308,2.853 23.802,3.505C23.208,4.273 22.597,5.027 21.983,5.777C20.717,7.325 19.102,8.359 17.224,8.998C15.86,9.461 14.485,9.889 13.312,10.766C12.973,11.021 12.454,11.145 12.008,11.158C10.235,11.205 8.467,11.128 6.769,10.538C5.061,9.944 3.366,9.312 1.66,8.712C0.726,8.384 0.051,7.88 -0.385,7.23C-0.825,6.573 -1.034,5.752 -0.951,4.744C-0.925,4.431 -0.949,4.114 -0.95,3.63ZM0,3.587C-0.189,1.557 0.59,-0.459 1.36,-2.477C1.651,-3.242 2.227,-3.717 2.905,-4.125C4.511,-5.091 6.267,-5.646 8.087,-6C9.369,-6.249 10.662,-6.466 11.961,-6.602C12.555,-6.665 13.184,-6.556 13.776,-6.423C15.863,-5.955 17.619,-4.95 18.988,-3.25C20.268,-1.661 21.659,-0.166 22.985,1.383C23.641,2.149 23.636,2.169 23.051,2.924C22.462,3.685 21.856,4.432 21.247,5.176C20.097,6.583 18.625,7.518 16.919,8.098C15.46,8.593 13.997,9.067 12.74,10.007C12.545,10.154 12.239,10.201 11.983,10.208C10.324,10.252 8.669,10.193 7.081,9.641C5.374,9.047 3.68,8.415 1.975,7.816C0.55,7.315 -0.129,6.343 -0.004,4.821C0.024,4.477 0,4.129 0,3.587Z"/>
            </g>
            <g transform="matrix(4.16667,0,0,4.16667,1328.14,2219.41)">
                <path d="M0,10.049C-1.323,8.528 -2.652,7.033 -3.942,5.507C-5.246,3.962 -6.61,2.51 -8.863,1.908C-8.413,1.694 -8.166,1.561 -7.907,1.459C-4.244,0 -0.457,0.039 3.351,0.608C3.996,0.704 4.592,1.167 5.186,1.505C5.306,1.574 5.37,1.846 5.363,2.02C5.334,2.671 5.298,3.324 5.202,3.967C5.138,4.382 4.928,4.773 4.848,5.186C4.669,6.116 4.13,6.757 3.388,7.315C2.255,8.168 1.176,9.094 0,10.049Z" style="fill:rgb(249,179,221);fill-rule:nonzero;"/>
                <path d="M0,10.049L0,10.786L0.599,10.786C1.765,9.839 2.835,8.92 3.959,8.074C4.897,7.369 5.555,6.542 5.781,5.366C5.863,4.942 6.075,4.539 6.141,4.112C6.242,3.432 6.282,2.746 6.312,2.062C6.323,1.793 6.251,1.425 6.121,1.176C6.001,0.943 5.83,0.78 5.66,0.681C4.961,0.284 4.245,-0.219 3.491,-0.332C-0.484,-0.926 -4.435,-0.947 -8.259,0.576C-8.53,0.683 -8.793,0.823 -9.271,1.05C-9.631,1.221 -9.845,1.598 -9.809,1.995C-9.773,2.391 -9.493,2.723 -9.108,2.826C-7.065,3.372 -5.85,4.719 -4.668,6.12C-3.375,7.65 -2.043,9.148 -0.717,10.672L0,10.049ZM0,10.049C-1.323,8.528 -2.652,7.033 -3.942,5.507C-5.246,3.962 -6.61,2.51 -8.863,1.908C-8.413,1.694 -8.166,1.561 -7.907,1.459C-4.244,0 -0.457,0.039 3.351,0.608C3.996,0.704 4.592,1.167 5.186,1.505C5.306,1.574 5.37,1.846 5.363,2.02C5.334,2.671 5.298,3.324 5.202,3.967C5.138,4.382 4.928,4.773 4.848,5.186C4.669,6.116 4.13,6.757 3.388,7.315C2.255,8.168 1.176,9.094 0,10.049Z"/>
            </g>
            <g transform="matrix(4.16667,0,0,4.16667,1275.93,2314.96)">
                <path d="M0,-3.107C-0.699,-2.405 -1.183,-1.877 -1.712,-1.398C-2.765,-0.443 -3.815,0.516 -4.92,1.407C-5.417,1.809 -6.013,2.131 -6.615,2.351C-7.828,2.796 -8.626,2.543 -9.461,1.517C-10.206,0.601 -10.61,-0.479 -10.743,-1.644C-10.887,-2.903 -10.975,-4.168 -11.077,-5.43C-11.089,-5.57 -11.034,-5.715 -11.003,-5.903C-7.495,-4.544 -4.107,-2.966 0,-3.107Z" style="fill:rgb(249,179,221);fill-rule:nonzero;"/>
                <path d="M0,-3.107L-0.033,-4.056C-4.002,-3.92 -7.269,-5.475 -10.66,-6.789C-10.927,-6.892 -11.226,-6.87 -11.474,-6.728C-11.723,-6.586 -11.894,-6.34 -11.94,-6.058C-11.987,-5.777 -12.041,-5.558 -12.024,-5.349C-11.921,-4.081 -11.832,-2.806 -11.687,-1.536C-11.533,-0.189 -11.06,1.057 -10.198,2.116C-9.635,2.808 -9.065,3.213 -8.451,3.396C-7.822,3.584 -7.125,3.55 -6.288,3.243C-5.59,2.988 -4.899,2.612 -4.323,2.146C-3.204,1.244 -2.14,0.273 -1.074,-0.694C-0.535,-1.183 -0.04,-1.72 0.673,-2.437L0,-3.107ZM0,-3.107C-0.699,-2.405 -1.183,-1.877 -1.712,-1.398C-2.765,-0.443 -3.815,0.516 -4.92,1.407C-5.417,1.809 -6.013,2.131 -6.615,2.351C-7.828,2.796 -8.626,2.543 -9.461,1.517C-10.206,0.601 -10.61,-0.479 -10.743,-1.644C-10.887,-2.903 -10.975,-4.168 -11.077,-5.43C-11.089,-5.57 -11.034,-5.715 -11.003,-5.903C-7.495,-4.544 -4.107,-2.966 0,-3.107Z"/>
            </g>
            <g transform="matrix(4.16667,0,0,4.16667,1257.78,2304.06)">
                <path d="M0,4.973C0.601,4.418 1.211,3.847 1.83,3.282C2.827,2.375 3.847,1.493 4.822,0.565C6.364,-0.905 8.18,-1.83 10.288,-2.348C10.328,-2.151 10.397,-2.002 10.378,-1.866C9.962,1.087 8.717,3.654 6.698,5.831C5.513,7.109 3.793,7.321 2.279,6.462C1.576,6.063 0.876,5.658 0.178,5.248C0.121,5.215 0.096,5.126 0,4.973Z" style="fill:rgb(249,179,221);fill-rule:nonzero;"/>
                <path d="M-0.645,4.275C-0.042,3.719 0.569,3.147 1.191,2.579C2.182,1.677 3.197,0.8 4.166,-0.123C5.83,-1.709 7.787,-2.712 10.061,-3.271C10.312,-3.332 10.578,-3.289 10.796,-3.15C11.015,-3.012 11.168,-2.791 11.219,-2.537C11.285,-2.212 11.35,-1.959 11.319,-1.733C10.875,1.416 9.548,4.155 7.395,6.477C5.897,8.093 3.724,8.374 1.81,7.288C1.103,6.887 0.399,6.48 -0.298,6.07C-0.434,5.992 -0.576,5.842 -0.805,5.478L0,5.478L0,4.973L-0.645,4.275ZM0,4.973C0.601,4.418 1.211,3.847 1.83,3.282C2.827,2.375 3.847,1.493 4.822,0.565C6.364,-0.905 8.18,-1.83 10.288,-2.348C10.328,-2.151 10.397,-2.002 10.378,-1.866C9.962,1.087 8.717,3.654 6.698,5.831C5.513,7.109 3.793,7.321 2.279,6.462C1.576,6.063 0.876,5.658 0.178,5.248C0.121,5.215 0.096,5.126 0,4.973Z"/>
            </g>
        </g>
    </g>
</svg>
